icon-themes/elementary_svg/cmd/lc_wrapideal.svg

<svg height="24" width="24" xmlns="http://www.w3.org/2000/svg" xmlns:xlink="http://www.w3.org/1999/xlink"><linearGradient id="a" gradientTransform="matrix(1.4 0 0 -1.5 .8 24.75)" gradientUnits="userSpaceOnUse" x1="6.689" x2="6.571429" y1="5.48" y2=".5"><stop offset="0" stop-color="#cd9ef7"/><stop offset="1" stop-color="#a56de2"/></linearGradient><radialGradient id="b" cx="-1.598504" cy="-37.097179" gradientTransform="matrix(-2.8642857 .00000019 -.00000015 -2.1857141 8.778565 -83.012398)" gradientUnits="userSpaceOnUse" r="10" xlink:href="#h"/><radialGradient id="c" cx="-1.448878" cy="-38.927242" gradientTransform="matrix(-2.8642857 .00000019 -.00000015 -2.1857141 25.778565 -85.012398)" gradientUnits="userSpaceOnUse" r="10" xlink:href="#h"/><radialGradient id="d" cx="-1.548628" cy="-40.659271" gradientTransform="matrix(-2.8642857 .00000019 -.00000015 -2.1857141 25.778565 -89.012398)" gradientUnits="userSpaceOnUse" r="10" xlink:href="#h"/><radialGradient id="e" cx="-1.598504" cy="-37.097179" gradientTransform="matrix(-2.8642857 .00000019 -.00000015 -2.1857141 25.778565 -81.012398)" gradientUnits="userSpaceOnUse" r="10" xlink:href="#h"/><linearGradient id="f" gradientTransform="matrix(.5372 0 0 .57682 1.683 -21.997)" gradientUnits="userSpaceOnUse" x1="30.374001" x2="30.374001" y1="48.536999" y2="58.938999"><stop offset="0" stop-color="#fff"/><stop offset="0" stop-color="#fff" stop-opacity=".235"/><stop offset="1" stop-color="#fff" stop-opacity=".157"/><stop offset="1" stop-color="#fff" stop-opacity=".392"/></linearGradient><linearGradient id="g" gradientTransform="matrix(0 -1 -1 0 29.55 28)" gradientUnits="userSpaceOnUse" x1="23.264" x2="10.336" y1="10.034" y2="10.034"><stop offset="0" stop-color="#ffa154"/><stop offset="1" stop-color="#f37329"/></linearGradient><linearGradient id="h"><stop offset="0" stop-color="#737373"/><stop offset=".26238" stop-color="#636363"/><stop offset=".704952" stop-color="#4b4b4b"/><stop offset="1" stop-color="#3f3f3f"/></linearGradient><radialGradient id="i" cx="-1.473815" cy="-42.064499" gradientTransform="matrix(-2.8642857 .00000019 -.00000015 -2.1857141 8.778565 -93.012398)" gradientUnits="userSpaceOnUse" r="10" xlink:href="#h"/><radialGradient id="j" cx="-1.448878" cy="-38.927242" gradientTransform="matrix(-2.8642857 .00000019 -.00000015 -2.1857141 8.778565 -85.012398)" gradientUnits="userSpaceOnUse" r="10" xlink:href="#h"/><radialGradient id="k" cx="-1.548628" cy="-40.659271" gradientTransform="matrix(-2.8642857 .00000019 -.00000015 -2.1857141 8.778565 -89.012398)" gradientUnits="userSpaceOnUse" r="10" xlink:href="#h"/><radialGradient id="l" cx="-1.598504" cy="-37.097179" gradientTransform="matrix(-2.8642857 .00000019 -.00000015 -2.1857141 8.778565 -81.012398)" gradientUnits="userSpaceOnUse" r="10" xlink:href="#h"/><g transform="translate(0 -2)"><g transform="translate(-10 3)"><path d="m28.496861 17.50091.002451-12.9983442-12.987312-.0025658-.0025 12.998344z" display="block" fill="url(#g)"/><g fill="none"><path d="m27.494411 16.489946.005901-10.9873802-10.987312-.0025658-.0059 10.98738z" display="block" opacity=".401" stroke="url(#f)" stroke-miterlimit="7" stroke-width=".964"/><path d="m28.496861 17.50091.002451-12.9983442-12.987312-.0025658-.0025 12.998344z" opacity=".5" stroke="#a62100" stroke-linejoin="round"/></g></g><g transform="translate(6 -8)"><path d="m.5018957 27.488846 10.9925153.0011.006-10.988846-10.9925985-.0011z" fill="url(#a)" stroke="#7239b3" stroke-linecap="round" stroke-linejoin="round" stroke-opacity=".75"/><path d="m1.0078125 17.5 9.9925165.0011" fill="none" opacity=".3" stroke="#fff"/></g><path d="m22 6.4995548c0-.269086-.576667-.499541-1.25-.499541h-17.5c-.673332 0-1.25.230455-1.25.499541v.999082c0 .269086.576668.499541 1.25.499541.0028.0041 17.5 0 17.5 0 .673333 0 1.25-.230455 1.25-.499541z" fill="#fff" opacity=".35"/><path d="m2.5000001 5.5000018v.9980469.00195c6.333334-.00999 12.6666679.0080365 18.9999999-.0019535v-.9746059z" fill="none" stroke="url(#i)" stroke-linecap="round" stroke-linejoin="round"/><path d="m5 14.001836h-3v1.998164h3z" fill="#fff" opacity=".35"/><path d="m2.5000001 13.500002v.998047.002l1.9999999-.02539v-.974606h-1.9999999z" fill="none" stroke="url(#j)" stroke-linecap="round" stroke-linejoin="round"/><path d="m5 10.001836h-3v1.998164h3z" fill="#fff" opacity=".35"/><path d="m2.5000001 9.5000018v.9980472.002l1.9999999-.025441v-.9746062z" fill="none" stroke="url(#k)" stroke-linecap="round" stroke-linejoin="round"/><path d="m5 18.001836h-3v1.998164h3z" fill="#fff" opacity=".35"/><path d="m2.5000001 17.500002v.998047.002l1.9999999-.02539v-.974606h-1.9999999z" fill="none" stroke="url(#l)" stroke-linecap="round" stroke-linejoin="round"/><path d="m22 22.001836h-20v1.998164h20z" fill="#fff" opacity=".35"/><g fill="none" stroke-linecap="round" stroke-linejoin="round" transform="translate(0 6)"><path d="m2.5000001 15.500002v.998047.002c6.333334-.01 12.6666679-.0154 18.9999999-.02539v-.974606h-18.9999999z" stroke="url(#b)"/><path d="m2.5 15.500002v.998047.002c6.333334-.01 12.666668-.0154 19-.02539v-.974606h-19z" opacity=".1" stroke="#000"/></g><path d="m22 14.001836h-3v1.998164h3z" fill="#fff" opacity=".35"/><path d="m19.5 13.500002v.998047.002l2-.02539v-.974606h-2z" fill="none" stroke="url(#c)" stroke-linecap="round" stroke-linejoin="round"/><path d="m22 10.001836h-3v1.998164h3z" fill="#fff" opacity=".35"/><path d="m19.5 9.5000018v.9980472.002l2-.02539v-.9746572z" fill="none" stroke="url(#d)" stroke-linecap="round" stroke-linejoin="round"/><path d="m22 18.001836h-3v1.998164h3z" fill="#fff" opacity=".35"/><path d="m19.5 17.500002v.998047.002l2-.02539v-.974606h-2z" fill="none" stroke="url(#e)" stroke-linecap="round" stroke-linejoin="round"/></g></svg>

<?xml version="1.0" encoding="UTF-8" standalone="no"?>
<svg
   xmlns:dc="http://purl.org/dc/elements/1.1/"
   xmlns:cc="http://creativecommons.org/ns#"
   xmlns:rdf="http://www.w3.org/1999/02/22-rdf-syntax-ns#"
   xmlns:svg="http://www.w3.org/2000/svg"
   xmlns="http://www.w3.org/2000/svg"
   xmlns:xlink="http://www.w3.org/1999/xlink"
   xmlns:sodipodi="http://sodipodi.sourceforge.net/DTD/sodipodi-0.dtd"
   xmlns:inkscape="http://www.inkscape.org/namespaces/inkscape"
   height="24"
   width="24"
   version="1.1"
   id="svg43"
   sodipodi:docname="lc_wrapideal.svg"
   inkscape:version="0.92.3 (unknown)"
   inkscape:export-filename="/home/rizmut/Dokumen/Rizmut/Github/libreoffice-style-elementary/images_elementary/cmd/lc_wrapoff.png"
   inkscape:export-xdpi="96"
   inkscape:export-ydpi="96">
  <metadata
     id="metadata49">
    <rdf:RDF>
      <cc:Work
         rdf:about="">
        <dc:format>image/svg+xml</dc:format>
        <dc:type
           rdf:resource="http://purl.org/dc/dcmitype/StillImage" />
        <dc:title></dc:title>
      </cc:Work>
    </rdf:RDF>
  </metadata>
  <defs
     id="defs47">
    <linearGradient
       id="d-6"
       gradientTransform="matrix(1.4,0,0,-1.5,0.8,24.75)"
       gradientUnits="userSpaceOnUse"
       x1="6.6890001"
       x2="6.5714288"
       y1="5.48"
       y2="0.5">
      <stop
         offset="0"
         stop-color="#cd9ef7"
         id="stop5006" />
      <stop
         offset="1"
         stop-color="#a56de2"
         id="stop5008" />
    </linearGradient>
    <radialGradient
       inkscape:collect="always"
       xlink:href="#a"
       id="radialGradient5783"
       gradientUnits="userSpaceOnUse"
       gradientTransform="matrix(-2.8642857,1.9e-7,-1.5e-7,-2.1857141,8.778565,-83.012398)"
       cx="-1.598504"
       cy="-37.097179"
       r="10" />
    <radialGradient
       inkscape:collect="always"
       xlink:href="#a"
       id="radialGradient975"
       gradientUnits="userSpaceOnUse"
       gradientTransform="matrix(-2.8642857,1.9e-7,-1.5e-7,-2.1857141,25.778565,-85.012398)"
       cx="-1.448878"
       cy="-38.927242"
       r="10" />
    <radialGradient
       inkscape:collect="always"
       xlink:href="#a"
       id="radialGradient977"
       gradientUnits="userSpaceOnUse"
       gradientTransform="matrix(-2.8642857,1.9e-7,-1.5e-7,-2.1857141,25.778565,-89.012398)"
       cx="-1.548628"
       cy="-40.659271"
       r="10" />
    <radialGradient
       inkscape:collect="always"
       xlink:href="#a"
       id="radialGradient979"
       gradientUnits="userSpaceOnUse"
       gradientTransform="matrix(-2.8642857,1.9e-7,-1.5e-7,-2.1857141,25.778565,-81.012398)"
       cx="-1.598504"
       cy="-37.097179"
       r="10" />
    <linearGradient
       id="a-3"
       gradientTransform="matrix(0.5372,0,0,0.57682,1.683,-21.997)"
       gradientUnits="userSpaceOnUse"
       x1="30.374001"
       x2="30.374001"
       y1="48.536999"
       y2="58.938999">
      <stop
         offset="0"
         stop-color="#fff"
         id="stop4987" />
      <stop
         offset="0"
         stop-color="#fff"
         stop-opacity=".235"
         id="stop4989" />
      <stop
         offset="1"
         stop-color="#fff"
         stop-opacity=".157"
         id="stop4991" />
      <stop
         offset="1"
         stop-color="#fff"
         stop-opacity=".392"
         id="stop4993" />
    </linearGradient>
    <linearGradient
       id="b-6"
       gradientTransform="matrix(0,-1,-1,0,29.55,28)"
       gradientUnits="userSpaceOnUse"
       x1="23.264"
       x2="10.336"
       y1="10.034"
       y2="10.034">
      <stop
         offset="0"
         stop-color="#ffa154"
         id="stop4996" />
      <stop
         offset="1"
         stop-color="#f37329"
         id="stop4998" />
    </linearGradient>
    <radialGradient
       id="c-7"
       cx="24.837"
       cy="36.421001"
       gradientTransform="matrix(-0.27598,0,0,0.29583,24.866,2.354)"
       gradientUnits="userSpaceOnUse"
       r="15.645">
      <stop
         offset="0"
         id="stop5001" />
      <stop
         offset="1"
         stop-opacity="0"
         id="stop5003" />
    </radialGradient>
  </defs>
  <sodipodi:namedview
     pagecolor="#ffffff"
     bordercolor="#666666"
     borderopacity="1"
     objecttolerance="10"
     gridtolerance="10"
     guidetolerance="10"
     inkscape:pageopacity="0"
     inkscape:pageshadow="2"
     inkscape:window-width="1366"
     inkscape:window-height="706"
     id="namedview45"
     showgrid="true"
     inkscape:zoom="11.313709"
     inkscape:cx="1.2439034"
     inkscape:cy="5.4269242"
     inkscape:window-x="0"
     inkscape:window-y="0"
     inkscape:window-maximized="1"
     inkscape:current-layer="g5773"
     showguides="false">
    <inkscape:grid
       type="xygrid"
       id="grid4559" />
  </sodipodi:namedview>
  <linearGradient
     id="a">
    <stop
       offset="0"
       stop-color="#737373"
       id="stop2" />
    <stop
       offset=".26238"
       stop-color="#636363"
       id="stop4" />
    <stop
       offset=".704952"
       stop-color="#4b4b4b"
       id="stop6" />
    <stop
       offset="1"
       stop-color="#3f3f3f"
       id="stop8" />
  </linearGradient>
  <radialGradient
     id="b"
     cx="-1.473815"
     cy="-42.064499"
     gradientTransform="matrix(-2.8642857,1.9e-7,-1.5e-7,-2.1857141,8.778565,-93.012398)"
     gradientUnits="userSpaceOnUse"
     r="10"
     xlink:href="#a" />
  <radialGradient
     id="c"
     cx="-1.448878"
     cy="-38.927242"
     gradientTransform="matrix(-2.8642857,1.9e-7,-1.5e-7,-2.1857141,8.778565,-85.012398)"
     gradientUnits="userSpaceOnUse"
     r="10"
     xlink:href="#a" />
  <radialGradient
     id="d"
     cx="-1.548628"
     cy="-40.659271"
     gradientTransform="matrix(-2.8642857,1.9e-7,-1.5e-7,-2.1857141,8.778565,-89.012398)"
     gradientUnits="userSpaceOnUse"
     r="10"
     xlink:href="#a" />
  <radialGradient
     id="e"
     cx="-1.598504"
     cy="-37.097179"
     gradientTransform="matrix(-2.8642857,1.9e-7,-1.5e-7,-2.1857141,8.778565,-81.012398)"
     gradientUnits="userSpaceOnUse"
     r="10"
     xlink:href="#a" />
  <g
     id="g5773"
     transform="translate(0,-2)">
    <g
       transform="translate(-10,3)"
       id="g1680">
      <path
         sodipodi:nodetypes="ccccc"
         inkscape:connector-curvature="0"
         style="display:block;fill:url(#b-6)"
         d="M 28.496861,17.50091 28.499312,4.5025658 15.512,4.5 15.5095,17.498344 Z"
         display="block"
         id="path5021" />
      <g
         id="g5027"
         style="fill:none">
        <path
           sodipodi:nodetypes="ccccc"
           d="M 27.494411,16.489946 27.500312,5.5025658 16.513,5.5 16.5071,16.48738 Z"
           display="block"
           stroke-miterlimit="7"
           id="path5023"
           inkscape:connector-curvature="0"
           style="display:block;opacity:0.40100002;stroke:url(#a-3);stroke-width:0.96399999;stroke-miterlimit:7" />
        <path
           sodipodi:nodetypes="ccccc"
           d="M 28.496861,17.50091 28.499312,4.5025658 15.512,4.5 15.5095,17.498344 Z"
           id="path5025"
           inkscape:connector-curvature="0"
           style="opacity:0.5;stroke:#a62100;stroke-linejoin:round" />
      </g>
    </g>
    <g
       transform="translate(6,-8)"
       id="g5735">
      <path
         sodipodi:nodetypes="ccccc"
         inkscape:connector-curvature="0"
         style="fill:url(#d-6);stroke:#7239b3;stroke-linecap:round;stroke-linejoin:round;stroke-opacity:0.75"
         d="m 0.5018957,27.488846 10.9925153,0.0011 0.006,-10.988846 L 0.5078125,16.5 Z"
         id="path5011" />
      <path
         sodipodi:nodetypes="cc"
         inkscape:connector-curvature="0"
         style="opacity:0.3;fill:none;stroke:#ffffff"
         d="m 1.0078125,17.5 9.9925165,0.0011"
         id="path5017" />
    </g>
    <path
       d="m 22,6.4995548 c 0,-0.269086 -0.576667,-0.499541 -1.25,-0.499541 H 3.25 c -0.673332,0 -1.25,0.230455 -1.25,0.499541 v 0.999082 c 0,0.269086 0.576668,0.499541 1.25,0.499541 0.0028,0.0041 17.5,0 17.5,0 0.673333,0 1.25,-0.230455 1.25,-0.499541 z"
       id="path15"
       inkscape:connector-curvature="0"
       style="opacity:0.35;fill:#ffffff" />
    <path
       sodipodi:nodetypes="cccccc"
       d="m 2.5000001,5.5000018 v 0.9980469 0.00195 C 8.8333341,6.4900087 15.166668,6.5080352 21.5,6.4980452 V 5.5234393 Z"
       id="path17"
       inkscape:connector-curvature="0"
       style="fill:none;stroke:url(#b);stroke-linecap:round;stroke-linejoin:round" />
    <path
       sodipodi:nodetypes="ccccc"
       d="M 5,14.001836 H 2 V 16 h 3 z"
       id="path21"
       inkscape:connector-curvature="0"
       style="opacity:0.35;fill:#ffffff" />
    <path
       sodipodi:nodetypes="ccccccc"
       d="m 2.5000001,13.500002 v 0.998047 0.002 L 4.5,14.474659 V 13.500053 H 2.5000001 Z"
       id="path23"
       inkscape:connector-curvature="0"
       style="fill:none;stroke:url(#c);stroke-linecap:round;stroke-linejoin:round" />
    <path
       sodipodi:nodetypes="ccccc"
       d="M 5,10.001836 H 2 V 12 h 3 z"
       id="path27"
       inkscape:connector-curvature="0"
       style="opacity:0.35;fill:#ffffff" />
    <path
       sodipodi:nodetypes="cccccc"
       d="m 2.5000001,9.5000018 v 0.9980472 0.002 L 4.5,10.474608 V 9.5000018 Z"
       id="path29"
       inkscape:connector-curvature="0"
       style="fill:none;stroke:url(#d);stroke-linecap:round;stroke-linejoin:round" />
    <path
       sodipodi:nodetypes="ccccc"
       d="M 5,18.001836 H 2 V 20 h 3 z"
       id="path33"
       inkscape:connector-curvature="0"
       style="opacity:0.35;fill:#ffffff" />
    <path
       sodipodi:nodetypes="ccccccc"
       style="fill:none;stroke:url(#e);stroke-linecap:round;stroke-linejoin:round"
       inkscape:connector-curvature="0"
       id="path35"
       d="m 2.5000001,17.500002 v 0.998047 0.002 L 4.5,18.474659 V 17.500053 H 2.5000001 Z" />
    <path
       style="opacity:0.35;fill:#ffffff"
       inkscape:connector-curvature="0"
       id="path870"
       d="M 22,22.001836 H 2 V 24 h 20 z"
       sodipodi:nodetypes="ccccc" />
    <g
       transform="translate(0,6)"
       style="fill:none;stroke-linecap:round;stroke-linejoin:round"
       id="g5779">
      <path
         style="stroke:url(#radialGradient5783)"
         inkscape:connector-curvature="0"
         id="path5775"
         d="m 2.5000001,15.500002 v 0.998047 0.002 c 6.333334,-0.01 12.6666679,-0.0154 18.9999999,-0.02539 V 15.500053 H 2.5000001 Z" />
      <path
         style="opacity:0.1;stroke:#000000"
         inkscape:connector-curvature="0"
         id="path5777"
         d="m 2.5,15.500002 v 0.998047 0.002 c 6.333334,-0.01 12.666668,-0.0154 19,-0.02539 v -0.974606 h -19 z" />
    </g>
    <path
       style="opacity:0.35;fill:#ffffff"
       inkscape:connector-curvature="0"
       id="path955"
       d="M 22,14.001836 H 19 V 16 h 3 z"
       sodipodi:nodetypes="ccccc" />
    <path
       style="fill:none;stroke:url(#radialGradient975);stroke-linecap:round;stroke-linejoin:round"
       inkscape:connector-curvature="0"
       id="path957"
       d="m 19.5,13.500002 v 0.998047 0.002 l 2,-0.02539 v -0.974606 h -2 z"
       sodipodi:nodetypes="ccccccc" />
    <path
       style="opacity:0.35;fill:#ffffff"
       inkscape:connector-curvature="0"
       id="path959"
       d="M 22,10.001836 H 19 V 12 h 3 z"
       sodipodi:nodetypes="ccccc" />
    <path
       style="fill:none;stroke:url(#radialGradient977);stroke-linecap:round;stroke-linejoin:round"
       inkscape:connector-curvature="0"
       id="path961"
       d="m 19.5,9.5000018 v 0.9980472 0.002 l 2,-0.02539 V 9.5000018 Z"
       sodipodi:nodetypes="cccccc" />
    <path
       style="opacity:0.35;fill:#ffffff"
       inkscape:connector-curvature="0"
       id="path963"
       d="M 22,18.001836 H 19 V 20 h 3 z"
       sodipodi:nodetypes="ccccc" />
    <path
       d="m 19.5,17.500002 v 0.998047 0.002 l 2,-0.02539 v -0.974606 h -2 z"
       id="path965"
       inkscape:connector-curvature="0"
       style="fill:none;stroke:url(#radialGradient979);stroke-linecap:round;stroke-linejoin:round"
       sodipodi:nodetypes="ccccccc" />
  </g>
</svg>
